!!! OTL: Berkowitz527
!!! Chapter: 1
!!! Section: IV
!!! Page: 132
!!! Mode: 
!!! Encoder: DJB
**kern
*staff1
*I"Piano
=1-
*clefF4
*k[b-e-a-]
*E-:
*M2/4
8E-\L
16G\L
16F\JJ
8E-\L
16B-\L
16A-\JJ
=2
8G\L
8e-\J
8B-\L
16G\L
16A-\JJ
=3
8B-\L
16An\L
16B-\JJ
16c\LL
16B-\
16A\
16G\JJ
=4
16F\LL
16E-\
16D\
16C\JJ
8BB-/
8r
=5
8E-\L
16C\L
16D\JJ
8E-\L
16G\L
16F\JJ
=6
8E-\L
8En\J
8F\L
8F#\J
=7
8G\L
16En\L
16F#\JJ
8G\L
16B-\L
16An\JJ
=8
!!linebreak:original
8G\L
8A-\J
8An\L
8Bn\J
=9
4c\
8r
16C/LL
16D/JJ
=10
8E-\L
16F\L
16G\JJ
8A-\L
16B-\L
16c\JJ
=11
8D\L
16E-\L
16F\JJ
8G\L
16A-\L
16B-\JJ
=12
8C\L
16D\L
16E-\JJ
16F\LL
16E-\
16D\
16C\JJ
=13
16BB-/LL
16C/
16D/
16E-/JJ
16F\LL
16G\
16A-\
16An\JJ
=14
8B-\L
16G\L
16E-\JJ
8C-/L
8BB-/J
=15
8r
8D\
4E-\
==
*-
